X: 1
T: Louis Cyr
M:C|
L:1/8
C:Jean-Claude Mirandette
S:Jean Marie Verret and Guy Bouchard
Z:For more tunes, discussion of the tunes, and other
Z:traditional music and dance resources, go to
Z:<http://tunes.nhcountrydance.com>.
F:http://web.me.com/peterynh/music/fiddle-tunes_abc_reels.html
K:G
"D7"DB, |\
"G"G,2G,B, D2B,D | "C"EDEF "(G)"G2GA | "G"BAGB "D"AGFD | "C"E2{D}EF "D7"FEB,D |
"G"G,2G,B, D2B,D | "C"EDEF "(G)"G2GA | "Em"BAGB "D"AGFD | "C"ED"D"EF "G"G2 :|
|: GA |\
"G"BAGB "D"A2GA | "G"BAGB "D"A2AB | "Am"cBAc "Em"B2AB | "Am"cABG "D"A2GA |
"G"BAGB "D"A2GA | "G"BAGB "D"AGFD | "Em"E2~E2 "Bm"E2~F2 | "D"FDE2 "Em"E2 :|

%%sep 1 1 500

